usr/share/icons/biglinux-icons-material/scalable/mimetypes/application-x-wine-extension-skb.svg

<svg width="24" height="24" viewBox="0 0 24 24" fill="none" xmlns="http://www.w3.org/2000/svg">
<rect x="1" y="1" width="22" height="22" rx="6.6" fill="url(#paint0_radial_21_469)"/>
<path d="M15.33 4L3 5.5628L3.88077 7.50525L12.8083 6.18622L16.0366 9.50887L21.2389 8.59752L15.33 4ZM12.9127 9.87154L4.42011 11.3137L5.24737 13.4838L9.86782 12.6115L11.0518 14.6585L15.9458 13.6044L12.9127 9.87154ZM10.1328 16.73L5.9328 17.6499L6.73798 20L11.2718 18.8542L10.1328 16.73Z" fill="white"/>
<path opacity="0.2" d="M20.6285 17.0064C20.6285 18.4554 19.4534 19.6314 18.0035 19.6314C16.5536 19.6314 15.3785 18.4554 15.3785 17.0064C15.3785 15.5574 16.5536 14.3814 18.0035 14.3814C19.4534 14.3814 20.6285 15.5574 20.6285 17.0064Z" stroke="white" stroke-width="0.629212" stroke-linecap="round"/>
<path d="M15.3785 17.0169C15.3723 15.5679 16.5422 14.3877 17.9921 14.3814C19.442 14.3751 20.6224 15.5458 20.6285 16.9959C20.6347 18.4418 19.47 19.6209 18.0236 19.6314" stroke="white" stroke-width="0.629212" stroke-linecap="round"/>
<mask id="mask0_21_469" style="mask-type:luminance" maskUnits="userSpaceOnUse" x="15" y="14" width="6" height="6">
<path d="M21 17C21 17.7956 20.6839 18.5587 20.1213 19.1213C19.5587 19.6839 18.7956 20 18 20C17.2044 20 16.4413 19.6839 15.8787 19.1213C15.3161 18.5587 15 17.7956 15 17C15 16.2044 15.3161 15.4413 15.8787 14.8787C16.4413 14.3161 17.2044 14 18 14C18.7956 14 19.5587 14.3161 20.1213 14.8787C20.6839 15.4413 21 16.2044 21 17Z" fill="white"/>
</mask>
<g mask="url(#mask0_21_469)">
<path d="M15.375 18.5L14.2286 16.6141H16.5L15.375 18.5Z" fill="white"/>
</g>
<defs>
<radialGradient id="paint0_radial_21_469" cx="0" cy="0" r="1" gradientUnits="userSpaceOnUse" gradientTransform="translate(17.5 1) rotate(116.565) scale(24.5967)">
<stop stop-color="#7DC6EE"/>
<stop offset="1" stop-color="#3297CF"/>
</radialGradient>
</defs>
</svg>

<svg xmlns="http://www.w3.org/2000/svg" width="24" height="24" fill="none"><rect width="22" height="22" x="1" y="1" fill="url(#a)" rx="6.6"/><path fill="#fff" d="M15.33 4 3 5.563l.88 1.942 8.928-1.319 3.229 3.323 5.202-.911L15.33 4Zm-2.417 5.872L4.42 11.314l.827 2.17 4.62-.873 1.185 2.047 4.894-1.054-3.033-3.732Zm-2.78 6.858-4.2.92.805 2.35 4.534-1.146-1.14-2.124Z"/><path stroke="#fff" stroke-linecap="round" stroke-width=".629" d="M20.628 17.006a2.625 2.625 0 1 1-5.25 0 2.625 2.625 0 0 1 5.25 0Z" opacity=".2"/><path stroke="#fff" stroke-linecap="round" stroke-width=".629" d="M15.379 17.017a2.625 2.625 0 1 1 2.645 2.614"/><mask id="b" width="6" height="6" x="15" y="14" maskUnits="userSpaceOnUse" style="mask-type:luminance"><path fill="#fff" d="M21 17a3 3 0 1 1-6 0 3 3 0 0 1 6 0Z"/></mask><g mask="url(#b)"><path fill="#fff" d="m15.375 18.5-1.146-1.886H16.5L15.375 18.5Z"/></g><defs><radialGradient id="a" cx="0" cy="0" r="1" gradientTransform="rotate(116.565 8.441 5.908) scale(24.5967)" gradientUnits="userSpaceOnUse"><stop stop-color="#7DC6EE"/><stop offset="1" stop-color="#3297CF"/></radialGradient></defs></svg>
